; HEADER_BLOCK_START
; generated by OrcaSlicer 2.3.1 on 2026-03-25 at 14:17:33
; total layer number: 252
; filament_density: 1.24
; filament_diameter: 1.75
; max_z_height: 33.00
; HEADER_BLOCK_END

; external perimeters extrusion width = 0.63mm
; perimeters extrusion width = 0.66mm
; infill extrusion width = 0.66mm
; solid infill extrusion width = 0.66mm
; top infill extrusion width = 0.60mm
; support material extrusion width = 0.54mm
; first layer extrusion width = 0.63mm

; EXECUTABLE_BLOCK_START
M73 P0 R127
M201 X500 Y500 Z100 E5000
M203 X500 Y500 Z10 E60
M204 P500 R1000 T500
M205 X8.00 Y8.00 Z0.40 E5.00 ; sets the jerk limits, mm/sec
;TYPE:Custom
G90 ; use absolute coordinates
M83 ; extruder relative mode
M140 S55 ; set final bed temp
M104 S150 ; set temporary nozzle temp to prevent oozing during homing
G4 S10 ; allow partial nozzle warmup
G28 ; home all axis
G1 Z50 F240
G1 X2 Y10 F3000
M104 S220 ; set final nozzle temp
M190 S55 ; wait for bed temp to stabilize
M109 S220 ; wait for nozzle temp to stabilize
G1 Z0.28 F240
G92 E0
G1 Y140 E10 F1500 ; prime the nozzle
M73 P0 R126
G1 X2.3 F5000
G92 E0
G1 Y10 E10 F1200 ; prime the nozzle
G92 E0
G90
G21
M83 ; use relative distances for extrusion
; Filament gcode
M106 S0
;LAYER_CHANGE
;Z:0.2
;HEIGHT:0.2
;BEFORE_LAYER_CHANGE
;0.2
G92 E0

G1 E-4 F3600
;_SET_FAN_SPEED_CHANGING_LAYER
G1 Z.6 F9000
G1 X93.598 Y74.322
G1 Z.6
G1 Z.2
G1 E4 F2400
;TYPE:Skirt
;WIDTH:0.63
G1 F3000
G1 X93.597 Y73.363 E.04586
G1 X94.441 Y71.326 E.10547
G1 X102.375 Y63.392 E.5368
G1 X104.412 Y62.548 E.10547
G1 X116.293 Y62.548 E.56838
G1 X118.231 Y63.297 E.09939
G1 X125.993 Y70.354 E.50186
G1 X126.97 Y71.326 E.06593
G1 X127.814 Y73.363 E.10547
G1 X127.814 Y121.233 E2.29007
G1 X126.398 Y147.498 E1.25833
G1 X125.559 Y149.38 E.09856
G1 X118.33 Y156.608 E.48906
G1 X116.293 Y157.452 E.10547
G1 X103.707 Y157.452 E.60214
G1 X101.67 Y156.608 E.10547
G1 X101.498 Y156.436 E.01164
G1 X95.64 Y149.142 E.44754
G1 X95.157 Y148.254 E.04839
G1 X94.451 Y146.137 E.10675
G1 X93.637 Y141.465 E.22684
G1 X93.598 Y74.382 E3.20925
G1 X94.185 Y74.381 F9000
G1 F3000
G1 X94.184 Y73.363 E.04871
G1 X94.856 Y71.741 E.08398
G1 X102.791 Y63.807 E.5368
G1 X104.412 Y63.135 E.08398
G1 X116.293 Y63.135 E.56838
G1 X117.836 Y63.732 E.07913
G1 X125.598 Y70.788 E.50186
G1 X126.555 Y71.741 E.0646
G1 X127.227 Y73.363 E.08398
G1 X127.227 Y121.233 E2.29007
G1 X125.812 Y147.466 E1.25682
G1 X125.144 Y148.964 E.07847
G1 X117.915 Y156.193 E.48906
G1 X116.293 Y156.865 E.08398
G1 X103.707 Y156.865 E.60214
G1 X102.085 Y156.193 E.08398
G1 X101.913 Y156.021 E.01164
G1 X96.098 Y148.775 E.44444
G1 X95.714 Y148.068 E.03853
G1 X95.008 Y145.951 E.10675
G1 X94.216 Y141.369 E.22246
G1 X94.185 Y74.441 E3.20177
; printing object barrel.stl id:0 copy 0
G1 E-2.8 F3600
;WIPE_START
G1 F3000
G1 X94.185 Y73.441 E-1.2
;WIPE_END
G1 Z.6 F9000
G1 X102.238 Y74.717 Z.6
G1 Z.2
G1 E4 F2400
;TYPE:Support interface
;WIDTH:0.54
G1 F900
G1 X102.238 Y75.423 E.02859
G1 X102.943 Y75.423 F9000
G1 F900
G1 X102.943 Y74.717 E.02859
G1 X103.649 Y74.717 F9000
G1 F900
G1 X103.649 Y105.766 E1.25767
G1 X104.355 Y105.766 E.02858
G1 X104.355 Y74.717 E1.25767
G1 X105.06 Y74.717 F9000
G1 F900
G1 X105.06 Y105.06 E1.22909
G1 X105.623 Y105.06 E.02278
G1 X105.621 Y104.355 E.02858
G1 X105.766 Y104.355 E.00589
G1 X105.766 Y74.717 E1.2005
G1 X106.472 Y74.717 E.02858
G1 X106.472 Y104.355 E1.2005
G1 X106.019 Y104.355 E.01834
G1 E-2.8 F3600
;WIPE_START
G1 F900
G1 X106.472 Y104.355 E-.5434
G1 X106.472 Y103.808 E-.6566
;WIPE_END
G1 Z.6 F9000
G1 X113.528 Y100.121 Z.6
G1 Z.2
G1 E4 F2400
G1 F900
G1 X113.528 Y74.717 E1.029
G1 X114.234 Y74.717 E.02858
G1 X114.234 Y99.415 E1.00042
G1 X114.487 Y99.415 E.01024
G1 X114.94 Y99.415 E.01834
G1 X114.94 Y74.717 E1.00042
G1 E-2.8 F3600
;WIPE_START
G1 F900
G1 X114.94 Y75.717 E-1.2
;WIPE_END
G1 Z.6 F9000
G1 X117.057 Y74.717 Z.6
G1 Z.2
G1 E4 F2400
G1 F900
G1 X117.057 Y75.423 E.02859
G1 X117.762 Y75.423 F9000
G1 F900
G1 X117.762 Y74.717 E.02859
G1 X118.48 Y73.885 F9000
;TYPE:Support
;WIDTH:0.63
G1 F900
G1 X118.48 Y73.307 E.02762
G1 X117.828 Y73.307 E.03121
G1 X117.828 Y73.621 E.01498
G1 X117.175 Y73.621 E.03121
G1 X117.175 Y73.075 E.02609
G1 X116.523 Y72.424 E.0441
G1 X116.523 Y73.621 E.05725
G1 X115.871 Y73.621 E.03121
G1 X115.871 Y71.772 E.08841
G1 X115.643 Y71.545 E.01538
G1 X115.643 Y66.251 E.25329
G1 X115.218 Y66.251 E.02033
G1 X115.218 Y73.621 E.35256
G1 X114.566 Y73.621 E.03121
G1 X114.566 Y66.251 E.35256
G1 X113.914 Y66.251 E.03121
G1 X113.914 Y73.621 E.35256
G1 X113.262 Y73.621 E.03121
G1 X113.262 Y66.251 E.35256
G1 X112.609 Y66.251 E.03121
G1 X112.609 Y73.621 E.35256
G1 X111.957 Y73.621 E.03121
G1 X111.957 Y66.251 E.35256
G1 X111.305 Y66.251 E.03121
G1 X111.305 Y73.957 E.36864
G1 X110.652 Y73.957 E.03121
G1 X110.652 Y66.251 E.36864
G1 X110 Y66.251 E.03121
G1 X110 Y73.957 E.36864
G1 X109.348 Y73.957 E.03121
G1 X109.348 Y66.251 E.36864
G1 X108.695 Y66.251 E.03121
G1 X108.695 Y73.957 E.36864
G1 X108.274 Y73.957 E.02018
G1 X108.274 Y73.621 E.01608
G1 X108.043 Y73.621 E.01103
G1 X108.043 Y66.251 E.35256
G1 X107.391 Y66.251 E.03121
G1 X107.391 Y73.621 E.35256
G1 X106.738 Y73.621 E.03121
G1 X106.738 Y66.251 E.35256
G1 X106.086 Y66.251 E.03121
G1 X106.086 Y73.621 E.35256
G1 X105.434 Y73.621 E.03121
G1 X105.434 Y66.251 E.35256
G1 X105.062 Y66.251 E.01777
M73 P1 R126
G1 X105.062 Y67.662 E.06752
G1 X104.782 Y67.662 E.01343
G1 X104.782 Y73.621 E.28504
G1 X104.129 Y73.621 E.03121
G1 X104.129 Y71.769 E.08857
G1 X103.477 Y72.422 E.04413
G1 X103.477 Y73.621 E.05736
G1 X102.825 Y73.621 E.03121
G1 X102.825 Y73.074 E.02615
G1 X102.591 Y73.307 E.01581
G1 X102.172 Y73.307 E.02003
G1 X102.172 Y73.621 E.01498
G1 X101.52 Y73.621 E.03121
G1 X101.52 Y73.307 E.01498
G1 X100.868 Y73.307 E.03121
G1 X100.868 Y107.881 E1.65399
G1 X101.52 Y107.881 E.03121
G1 X101.52 Y76.519 E1.50036
G1 X102.172 Y76.519 E.03121
M73 P1 R125
G1 X102.172 Y107.881 E1.50036
G1 X102.825 Y107.881 E.03121
G1 X102.825 Y107.568 E.01498
G1 X103.477 Y107.568 E.03121
G1 X103.477 Y107.881 E.01498
G1 X104.129 Y107.881 E.03121
G1 X104.129 Y107.568 E.01498
G1 X104.635 Y107.568 E.02421
G1 X104.635 Y106.862 E.03376
G1 X104.782 Y106.862 E.00701
G1 X104.782 Y107.881 E.04874
G1 X105.434 Y107.881 E.03121
G1 X105.434 Y106.862 E.04874
G1 X106.086 Y106.862 E.03121
G1 X106.086 Y107.175 E.01498
G1 X106.738 Y107.175 E.03121
G1 X106.738 Y105.451 E.08249
G1 X107.391 Y105.451 E.03121
G1 X107.391 Y107.44 E.09513
G1 X100.215 Y108.145 F9000
G1 F900
G1 X100.215 Y73.307 E1.66662
G1 X99.563 Y73.307 E.03121
G1 X99.563 Y107.881 E1.65399
G1 X99.417 Y107.881 E.00699
G1 X99.417 Y107.175 E.03376
G1 X98.911 Y107.175 E.02422
G1 X98.911 Y73.307 E1.62023
G1 X98.258 Y73.307 E.03121
G1 X98.258 Y106.47 E1.58647
G1 X98.006 Y106.47 E.01209
G1 X98.006 Y93.062 E.64141
G1 X97.606 Y93.062 E.01912
G1 X97.606 Y73.749 E.92393
G1 X116.172 Y71.238 F9000
G1 F900
G1 X116.172 Y65.722 E.26387
G1 X104.534 Y65.722 E.55675
G1 X104.534 Y67.134 E.06752
G1 X103.828 Y67.134 E.03376
G1 X103.828 Y71.323 E.2004
G1 X102.372 Y72.779 E.09852
G1 X97.477 Y72.779 E.23416
G1 X97.477 Y73.485 E.03376
G1 X96.772 Y73.485 E.03376
G1 X96.772 Y93.591 E.96185
G1 X97.477 Y93.591 E.03376
G1 X97.477 Y106.998 E.64141
G1 X98.183 Y106.998 E.03376
G1 X98.183 Y107.704 E.03376
G1 X98.889 Y107.704 E.03376
G1 X98.889 Y108.409 E.03376
G1 X106.292 Y108.409 E.35419
G1 X106.292 Y107.704 E.03376
G1 X107.704 Y107.704 E.06752
G1 X107.704 Y106.998 E.03376
G1 X108.409 Y106.998 E.03376
G1 X108.409 Y104.807 E.10482
G1 X108.269 Y104.91 E.00835
G1 X107.706 Y104.626 E.03014
G1 X107.696 Y102.923 E.0815
G1 X107.124 Y102.923 E.02736
G1 X107.106 Y104.923 E.09568
G1 X106.19 Y104.923 E.0438
G1 X106.192 Y105.628 E.03376
G1 X105.574 Y105.628 E.02958
G1 X105.573 Y106.334 E.03376
G1 X104.107 Y106.334 E.07014
G1 X104.107 Y107.04 E.03376
G1 X103.081 Y107.04 E.04907
G1 X103.081 Y75.99 E1.48538
G1 X101.67 Y75.99 E.06752
G1 X101.67 Y74.149 E.0881
G1 X107.745 Y74.149 E.29065
G1 X107.745 Y75.115 E.04622
G1 X107.166 Y75.115 E.02772
G1 X107.166 Y76.485 E.06553
G1 X107.784 Y76.485 E.0296
G1 X107.784 Y74.787 E.08124
G1 X108.086 Y74.485 E.02041
G1 X111.913 Y74.485 E.18307
G1 X112.214 Y74.784 E.02032
G1 X112.225 Y76.485 E.08135
G1 X112.838 Y76.485 E.02934
G1 X112.835 Y75.115 E.06553
G1 X112.255 Y75.115 E.02774
G1 X112.255 Y74.149 E.04622
G1 X118.33 Y74.149 E.29065
G1 X118.33 Y75.99 E.0881
G1 X116.919 Y75.99 E.06752
G1 X116.919 Y98.572 E1.08028
G1 X116.213 Y98.572 E.03376
G1 X116.213 Y99.277 E.03376
G1 X115.508 Y99.277 E.03376
G1 X115.508 Y99.941 E.03177
G1 X118.994 Y99.941 E.16681
G1 X118.994 Y99.236 E.03376
G1 X119.7 Y99.236 E.03376
G1 X119.7 Y98.53 E.03376
G1 X120.406 Y98.53 E.03376
G1 X120.406 Y97.825 E.03376
G1 X121.111 Y97.825 E.03376
G1 X121.111 Y97.119 E.03376
G1 X121.817 Y97.119 E.03376
G1 X121.817 Y95.708 E.06752
G1 X122.523 Y95.708 E.03376
G1 X122.523 Y91.474 E.20255
G1 X123.228 Y91.474 E.03376
G1 X123.228 Y87.945 E.16879
G1 X123.934 Y87.945 E.03376
G1 X123.934 Y83.006 E.23631
G1 X124.64 Y83.006 E.03376
G1 X124.64 Y73.485 E.45547
G1 X123.934 Y73.485 E.03376
G1 X123.934 Y72.779 E.03376
G1 X117.627 Y72.779 E.30174
G1 X116.172 Y71.326 E.09837
G1 X123.699 Y82.741 F9000
G1 F900
G1 X123.699 Y74.013 E.41755
G1 X123.406 Y74.013 E.01401
G1 X123.406 Y73.307 E.03376
G1 X123.046 Y73.307 E.0172
G1 X123.046 Y87.417 E.67499
G1 X122.7 Y87.417 E.01656
G1 X122.7 Y90.945 E.16879
G1 X122.394 Y90.945 E.01464
G1 X122.394 Y73.307 E.84378
G1 X121.742 Y73.307 E.03121
G1 X121.742 Y95.179 E1.04633
G1 X121.289 Y95.179 E.02167
G1 X121.289 Y96.59 E.06752
G1 X121.089 Y96.59 E.00954
G1 X121.089 Y73.307 E1.11385
G1 X120.437 Y73.307 E.03121
G1 X120.437 Y97.296 E1.14761
G1 X119.877 Y97.296 E.02677
G1 X119.877 Y98.002 E.03376
G1 X119.785 Y98.002 E.00443
G1 X119.785 Y73.307 E1.18136
G1 X119.132 Y73.307 E.03121
G1 X119.132 Y98.707 E1.21512
G1 X118.48 Y98.707 E.03121
G1 X118.48 Y76.519 E1.06149
G1 X117.828 Y76.519 E.03121
G1 X117.828 Y99.413 E1.09525
G1 X117.175 Y99.413 E.03121
G1 X117.175 Y98.836 E.02762
G1 X116.019 Y98.004 F9000
;TYPE:Support interface
;WIDTH:0.54
G1 F900
G1 X116.351 Y98.004 E.01343
G1 X116.351 Y74.717 E.94325
G1 X115.645 Y74.717 E.02858
G1 X115.645 Y98.709 E.97184
G1 X115.314 Y98.709 E.01343
G1 E-2.8 F3600
;WIPE_START
G1 F900
G1 X115.645 Y98.709 E-.39789
G1 X115.645 Y98.041 E-.80211
;WIPE_END
G1 Z.6 F9000
G1 X123.228 Y111.503 Z.6
G1 Z.2
G1 E4 F2400
;TYPE:Support
;WIDTH:0.63
G1 F900
G1 X123.228 Y110.885 E.02955
G1 X115.825 Y110.885 E.35419
G1 X115.825 Y111.591 E.03376
G1 X115.119 Y111.591 E.03376
G1 X115.119 Y112.296 E.03376
G1 X114.413 Y112.296 E.03376
G1 X114.413 Y113.002 E.03376
G1 X113.708 Y113.002 E.03376
G1 X113.708 Y113.708 E.03376
G1 X113.002 Y113.708 E.03376
G1 X113.002 Y114.413 E.03376
G1 X112.296 Y114.413 E.03376
G1 X112.296 Y115.119 E.03376
G1 X111.789 Y115.119 E.02428
G1 X112.294 Y115.374 E.02707
G1 X112.311 Y118.255 E.13785
G1 X112.284 Y119.194 E.04495
G1 X112.857 Y119.194 E.02738
G1 X112.875 Y117.194 E.09568
G1 X113.809 Y117.194 E.04468
G1 X113.814 Y116.489 E.03376
G1 X114.422 Y116.489 E.02907
G1 X114.423 Y115.783 E.03376
G1 X115.453 Y115.783 E.04928
G1 X115.457 Y115.077 E.03376
G1 X115.894 Y115.077 E.02091
G1 X115.894 Y114.372 E.03376
G1 X116.919 Y114.372 E.04905
G1 X116.919 Y144.01 E1.41786
G1 X118.33 Y144.01 E.06752
G1 X118.33 Y145.851 E.0881
G1 X112.255 Y145.851 E.29065
G1 X112.255 Y144.885 E.04623
G1 X112.834 Y144.885 E.02772
G1 X112.834 Y143.515 E.06553
G1 X112.216 Y143.515 E.0296
G1 X112.216 Y145.213 E.08124
G1 X111.914 Y145.515 E.02041
G1 X108.087 Y145.515 E.18307
G1 X107.786 Y145.216 E.02032
G1 X107.775 Y143.515 E.08135
G1 X107.162 Y143.515 E.02934
G1 X107.165 Y144.885 E.06553
G1 X107.745 Y144.885 E.02774
G1 X107.745 Y145.851 E.04623
G1 X101.67 Y145.851 E.29065
G1 X101.67 Y144.01 E.0881
G1 X103.081 Y144.01 E.06752
G1 X103.081 Y122.84 E1.01276
G1 X103.787 Y122.84 E.03376
G1 X103.787 Y122.176 E.03177
G1 X101.006 Y122.176 E.13305
G1 X101.006 Y122.881 E.03376
G1 X100.3 Y122.881 E.03376
G1 X100.3 Y123.587 E.03376
G1 X99.594 Y123.587 E.03376
G1 X99.594 Y124.293 E.03376
G1 X98.889 Y124.293 E.03376
G1 X98.889 Y124.998 E.03376
G1 X98.183 Y124.998 E.03376
G1 X98.183 Y125.704 E.03376
G1 X97.477 Y125.704 E.03376
G1 X97.477 Y127.115 E.06752
G1 X96.772 Y127.115 E.03376
G1 X96.772 Y140.87 E.65802
G1 X97.477 Y140.87 E.03376
M73 P1 R124
G1 X97.477 Y145.104 E.20255
G1 X98.183 Y145.104 E.03376
G1 X98.183 Y147.221 E.10128
G1 X102.373 Y147.221 E.20046
G1 X103.828 Y148.674 E.09836
G1 X103.828 Y154.278 E.26809
G1 X116.172 Y154.278 E.5905
G1 X116.172 Y148.677 E.26793
G1 X117.628 Y147.221 E.09851
G1 X123.228 Y147.221 E.26793
G1 X123.228 Y132.402 E.70893
G1 X123.934 Y132.402 E.03376
G1 X123.934 Y121.111 E.54014
G1 X124.64 Y121.111 E.03376
G1 X124.64 Y113.002 E.38795
G1 X123.934 Y113.002 E.03376
G1 X123.934 Y111.591 E.06752
G1 X123.228 Y111.591 E.03376
G1 X123.699 Y120.847 F9000
G1 F900
G1 X123.699 Y113.53 E.35004
G1 X123.406 Y113.53 E.01401
G1 X123.406 Y112.119 E.06752
G1 X123.046 Y112.119 E.0172
G1 X123.046 Y131.874 E.94505
G1 X122.7 Y131.874 E.01656
G1 X122.7 Y146.693 E.70893
G1 X122.394 Y146.693 E.01464
G1 X122.394 Y111.413 E1.68774
G1 X121.742 Y111.413 E.03121
M73 P2 R124
G1 X121.742 Y146.693 E1.68774
G1 X121.089 Y146.693 E.03121
G1 X121.089 Y111.413 E1.68774
G1 X120.437 Y111.413 E.03121
G1 X120.437 Y146.693 E1.68774
G1 X119.785 Y146.693 E.03121
G1 X119.785 Y111.413 E1.68774
G1 X119.132 Y111.413 E.03121
G1 X119.132 Y146.693 E1.68774
G1 X118.48 Y146.693 E.03121
G1 X118.48 Y146.38 E.01498
G1 X117.828 Y146.38 E.03121
G1 X117.828 Y146.693 E.01498
G1 X117.409 Y146.693 E.02003
G1 X117.175 Y146.926 E.0158
G1 X117.175 Y146.38 E.02615
G1 X116.523 Y146.38 E.03121
G1 X116.523 Y147.578 E.05736
G1 X115.871 Y148.231 E.04413
G1 X115.871 Y146.38 E.08856
G1 X115.218 Y146.38 E.03121
G1 X115.218 Y153.749 E.35256
G1 X114.566 Y153.749 E.03121
G1 X114.566 Y146.38 E.35256
G1 X114.487 Y146.38 E.0038
G1 X113.914 Y146.38 E.02741
G1 X113.914 Y153.749 E.35256
G1 X113.262 Y153.749 E.03121
G1 X113.262 Y146.38 E.35256
G1 X112.609 Y146.38 E.03121
G1 X112.609 Y153.749 E.35256
G1 X111.957 Y153.749 E.03121
G1 X111.957 Y146.38 E.35256
G1 X111.726 Y146.38 E.01103
G1 X111.726 Y146.043 E.01608
G1 X111.305 Y146.043 E.02018
G1 X111.305 Y153.749 E.36865
G1 X110.652 Y153.749 E.03121
G1 X110.652 Y146.043 E.36865
G1 X110 Y146.043 E.03121
G1 X110 Y153.749 E.36865
G1 X109.348 Y153.749 E.03121
G1 X109.348 Y146.043 E.36865
G1 X108.695 Y146.043 E.03121
G1 X108.695 Y153.749 E.36865
G1 X108.043 Y153.749 E.03121
G1 X108.043 Y146.38 E.35256
G1 X107.391 Y146.38 E.03121
G1 X107.391 Y153.749 E.35256
G1 X106.738 Y153.749 E.03121
G1 X106.738 Y146.38 E.35256
G1 X106.086 Y146.38 E.03121
G1 X106.086 Y153.749 E.35256
G1 X105.434 Y153.749 E.03121
G1 X105.434 Y146.38 E.35256
G1 X104.782 Y146.38 E.03121
G1 X104.782 Y153.749 E.35256
G1 X104.357 Y153.749 E.02032
G1 X104.357 Y148.455 E.25329
G1 X104.129 Y148.228 E.01538
G1 X104.129 Y146.38 E.08841
G1 X103.477 Y146.38 E.03121
G1 X103.477 Y147.576 E.05725
G1 X102.825 Y146.925 E.0441
G1 X102.825 Y146.38 E.02609
G1 X102.172 Y146.38 E.03121
G1 X102.172 Y146.693 E.01498
G1 X101.52 Y146.693 E.03121
G1 X101.52 Y146.38 E.01498
G1 X101.141 Y146.38 E.01811
G1 X101.141 Y143.481 E.13865
G1 X101.52 Y143.481 E.01811
G1 X101.52 Y123.41 E.96022
G1 X100.868 Y123.41 E.03121
G1 X100.868 Y146.693 E1.11385
G1 X100.215 Y146.693 E.03121
G1 X100.215 Y124.115 E1.08009
G1 X100.123 Y124.115 E.00443
G1 X100.123 Y124.821 E.03376
G1 X99.563 Y124.821 E.02677
G1 X99.563 Y146.693 E1.04633
G1 X98.911 Y146.693 E.03121
G1 X98.911 Y125.527 E1.01257
G1 X98.711 Y125.527 E.00954
G1 X98.711 Y126.232 E.03376
G1 X98.258 Y126.232 E.02167
G1 X98.258 Y144.576 E.87754
G1 X98.006 Y144.576 E.01209
G1 X98.006 Y140.342 E.20255
G1 X97.606 Y140.342 E.01912
G1 X97.606 Y127.379 E.62011
G1 X102.172 Y122.44 F9000
G1 F900
G1 X102.172 Y143.745 E1.01925
G1 E-2.8 F3600
;WIPE_START
G1 F900
G1 X102.172 Y142.745 E-1.2
;WIPE_END
G1 Z.6 F9000
G1 X118.48 Y143.745 Z.6
G1 Z.2
G1 E4 F2400
G1 F900
G1 X118.48 Y111.413 E1.54675
G1 X117.828 Y111.413 E.03121
G1 X117.828 Y143.481 E1.53411
G1 X117.447 Y143.481 E.0182
