; HEADER_BLOCK_START
; generated by OrcaSlicer 2.3.1 on 2026-03-24 at 22:19:55
; total layer number: 56
; filament_density: 1.24
; filament_diameter: 1.75
; max_z_height: 9.00
; HEADER_BLOCK_END

; external perimeters extrusion width = 0.63mm
; perimeters extrusion width = 0.66mm
; infill extrusion width = 0.66mm
; solid infill extrusion width = 0.66mm
; top infill extrusion width = 0.60mm
; support material extrusion width = 0.54mm
; first layer extrusion width = 0.63mm

; EXECUTABLE_BLOCK_START
M73 P0 R64
M201 X500 Y500 Z100 E5000
M203 X500 Y500 Z10 E60
M204 P500 R1000 T500
M205 X8.00 Y8.00 Z0.40 E5.00 ; sets the jerk limits, mm/sec
;TYPE:Custom
G90 ; use absolute coordinates
M83 ; extruder relative mode
M140 S55 ; set final bed temp
M104 S150 ; set temporary nozzle temp to prevent oozing during homing
G4 S10 ; allow partial nozzle warmup
G28 ; home all axis
G1 Z50 F240
G1 X2 Y10 F3000
M104 S220 ; set final nozzle temp
M190 S55 ; wait for bed temp to stabilize
M109 S220 ; wait for nozzle temp to stabilize
G1 Z0.28 F240
G92 E0
G1 Y140 E10 F1500 ; prime the nozzle
G1 X2.3 F5000
G92 E0
G1 Y10 E10 F1200 ; prime the nozzle
G92 E0
G90
G21
M83 ; use relative distances for extrusion
; Filament gcode
M106 S0
;LAYER_CHANGE
;Z:0.2
;HEIGHT:0.2
;BEFORE_LAYER_CHANGE
;0.2
G92 E0

G1 E-4 F3600
;_SET_FAN_SPEED_CHANGING_LAYER
G1 Z.6 F9000
G1 X84.054 Y89.645
G1 Z.6
G1 Z.2
G1 E4 F2400
;TYPE:Skirt
;WIDTH:0.63
G1 F3000
G1 X84.224 Y89.619 E.00821
G1 X135.776 Y89.619 E2.46624
G1 X136.315 Y89.67 E.02587
M73 P1 R64
G1 X137.339 Y89.885 E.05005
G1 X138.355 Y90.227 E.05131
G1 X139.312 Y90.683 E.05069
G1 X140.207 Y91.249 E.05068
G1 X141.28 Y92.158 E.06725
G1 X142.052 Y93.449 E.07199
G1 X142.161 Y94.231 E.03776
G1 X142.161 Y127.5 E1.59157
G1 X141.768 Y128.953 E.07199
G1 X140.696 Y130.009 E.07199
G1 X139.28 Y130.381 E.07002
G1 X80.72 Y130.381 E2.80148
G1 X79.267 Y129.988 E.07199
G1 X78.211 Y128.916 E.07199
G1 X77.839 Y127.5 E.07002
G1 X77.839 Y94.231 E1.59157
G1 X78.232 Y92.778 E.07199
G1 X78.999 Y91.888 E.05622
G1 X80.074 Y91.055 E.06503
G1 X80.99 Y90.524 E.05069
G1 X81.964 Y90.105 E.05069
G1 X82.98 Y89.804 E.05069
G1 X83.995 Y89.653 E.04908
G1 X84.083 Y90.228 F9000
G1 F3000
G1 X84.224 Y90.206 E.00681
G1 X136.205 Y90.247 E2.48675
G1 X137.162 Y90.445 E.04676
G1 X138.113 Y90.762 E.04794
G1 X139.008 Y91.185 E.04736
G1 X139.846 Y91.712 E.04735
G1 X140.872 Y92.58 E.06433
G1 X141.574 Y94.231 E.0858
G1 X141.574 Y127.5 E1.59157
G1 X141.182 Y128.781 E.06409
G1 X140.142 Y129.625 E.06409
G1 X139.28 Y129.794 E.04201
G1 X80.72 Y129.794 E2.80148
G1 X79.439 Y129.402 E.06409
G1 X78.595 Y128.362 E.06409
G1 X78.426 Y127.5 E.04201
G1 X78.426 Y94.231 E1.59157
G1 X79.128 Y92.58 E.0858
G1 X80.378 Y91.557 E.07728
G1 X81.233 Y91.059 E.04736
G1 X82.141 Y90.665 E.04736
G1 X83.09 Y90.381 E.04736
G1 X84.024 Y90.237 E.04522
; printing object motorSide.stl id:4446508827193300954 copy 0
G1 E-2.8 F3600
;WIPE_START
G1 F3000
G1 X84.224 Y90.206 E-.24277
G1 X85.021 Y90.207 E-.95723
;WIPE_END
G1 Z.6 F9000
G1 X136.512 Y111.009 Z.6
G1 Z.2
G1 E4 F2400
;TYPE:Inner wall
;WIDTH:0.629999
G1 F900
G1 X136.607 Y111.024 E.00461
G1 X138.076 Y111.024 E.07029
G1 X138.076 Y126.476 E.73926
G1 X81.924 Y126.476 E2.68633
G1 X81.924 Y94.544 E1.52765
G1 X82.152 Y94.361 E.01403
M73 P1 R63
G1 X82.658 Y94.055 E.02826
G1 X83.201 Y93.808 E.02853
G1 X83.77 Y93.628 E.02853
G1 X84.32 Y93.524 E.02682
G1 X135.68 Y93.524 E2.45701
G1 X136.36 Y93.67 E.03328
G1 X136.909 Y93.858 E.02776
G1 X137.412 Y94.097 E.02666
G1 X138.076 Y94.544 E.0383
G1 X138.076 Y103.976 E.45126
G1 X136.607 Y103.976 E.07029
G1 X136.216 Y104.068 E.01922
G1 X135.955 Y104.265 E.01561
G1 X135.782 Y104.548 E.01588
G1 X135.726 Y104.857 E.01502
G1 X135.73 Y110.217 E.25642
G1 X135.827 Y110.552 E.01668
G1 X136.053 Y110.827 E.01704
G1 X136.341 Y110.982 E.01567
G1 X136.453 Y111 E.00539
G1 X136.607 Y110.415 F9000
;TYPE:Outer wall
G1 F900
G1 X138.685 Y110.415 E.09941
G1 X138.685 Y127.085 E.79748
G1 X81.315 Y127.085 E2.74455
G1 X81.315 Y94.251 E1.57075
G1 X81.803 Y93.861 E.02992
G1 X82.374 Y93.515 E.0319
G1 X82.983 Y93.239 E.03199
G1 X83.62 Y93.037 E.03199
G1 X84.263 Y92.915 E.0313
G1 X135.737 Y92.915 E2.4625
G1 X136.371 Y93.036 E.03088
G1 X137.017 Y93.239 E.03242
G1 X137.626 Y93.515 E.03197
G1 X138.197 Y93.861 E.0319
G1 X138.685 Y94.251 E.02992
G1 X138.685 Y104.585 E.49436
G1 X136.552 Y104.585 E.10206
G1 X136.406 Y104.674 E.00817
G1 X136.335 Y104.857 E.00939
G1 X136.339 Y110.188 E.25502
G1 X136.436 Y110.354 E.00922
G1 X136.551 Y110.395 E.00582
G1 E-2.8 F3600
;WIPE_START
G1 F900
G1 X137.55 Y110.404 E-1.2
;WIPE_END
G1 Z.6 F9000
G1 X106.989 Y106.7 Z.6
G1 Z.2
G1 E4 F2400
;TYPE:Inner wall
G1 F900
G1 X107.152 Y106.219 E.02431
G1 X107.414 Y105.748 E.02578
G1 X107.786 Y105.3 E.02784
G1 X108.26 Y104.91 E.02938
G1 X108.833 Y104.605 E.03103
G1 X109.44 Y104.43 E.03021
G1 X110.016 Y104.382 E.02767
G1 X110.677 Y104.455 E.0318
G1 X111.294 Y104.66 E.03112
G1 X111.839 Y104.978 E.03021
G1 X112.299 Y105.39 E.02953
G1 X112.685 Y105.908 E.03088
G1 X113.025 Y106.666 E.03975
G1 X113.298 Y106.261 E.02336
G1 X113.667 Y105.94 E.02336
G1 X114.106 Y105.726 E.02336
G1 X114.586 Y105.633 E.02339
G1 X115.13 Y105.676 E.02609
G1 X115.639 Y105.877 E.02621
G1 X116.054 Y106.204 E.02527
G1 X116.375 Y106.666 E.02689
G1 X116.533 Y107.128 E.02336
G1 X116.567 Y107.615 E.02336
G1 X116.474 Y108.094 E.02336
G1 X116.26 Y108.533 E.02336
G1 X115.939 Y108.902 E.02336
G1 X115.534 Y109.175 E.02336
G1 X115.072 Y109.333 E.02336
G1 X114.585 Y109.367 E.02336
G1 X114.093 Y109.268 E.02403
G1 X113.667 Y109.06 E.02268
G1 X113.298 Y108.739 E.02336
;WIDTH:0.63159
G1 X113.006 Y108.349 E.02338
G1 X112.771 Y108.936 E.03031
;WIDTH:0.629999
G1 X112.425 Y109.465 E.03021
G1 X111.98 Y109.912 E.03021
G1 X111.454 Y110.262 E.03021
G1 X110.868 Y110.498 E.03021
G1 X110.247 Y110.611 E.03021
G1 X109.616 Y110.597 E.03021
G1 X109 Y110.456 E.03021
G1 X108.502 Y110.232 E.02611
G1 X108.147 Y110.002 E.02026
G1 X107.786 Y109.7 E.02253
G1 X107.414 Y109.252 E.02784
G1 X107.168 Y108.812 E.02411
G1 X106.989 Y108.3 E.02596
G1 X106.702 Y108.739 E.02509
G1 X106.333 Y109.06 E.02336
G1 X105.894 Y109.274 E.02336
G1 X105.372 Y109.372 E.02543
G1 X104.706 Y109.274 E.03221
G1 X104.267 Y109.06 E.02336
G1 X103.898 Y108.739 E.02336
G1 X103.625 Y108.334 E.02336
G1 X103.467 Y107.872 E.02336
G1 X103.433 Y107.385 E.02336
G1 X103.526 Y106.906 E.02336
G1 X103.74 Y106.467 E.02336
G1 X104.061 Y106.098 E.02336
G1 X104.466 Y105.825 E.02336
G1 X104.928 Y105.667 E.02336
G1 X105.351 Y105.634 E.0203
G1 X105.804 Y105.694 E.02188
G1 X106.226 Y105.87 E.02186
G1 X106.68 Y106.234 E.02783
G1 X106.956 Y106.65 E.02388
G1 X106.601 Y107.374 F9000
;TYPE:Outer wall
;WIDTH:0.768911
G1 F900
G1 X106.633 Y107.545 E.01024
G1 X106.596 Y107.652 E.0067
;WIDTH:0.730567
G1 X106.559 Y107.759 E.00635
;WIDTH:0.692223
G1 X106.523 Y107.866 E.00599
;WIDTH:0.653879
G1 X106.327 Y108.227 E.02043
;WIDTH:0.629999
G1 X106.169 Y108.419 E.01191
G1 X105.901 Y108.612 E.01579
G1 X105.593 Y108.73 E.01579
G1 X105.284 Y108.766 E.01489
G1 X104.939 Y108.712 E.01671
G1 X104.637 Y108.577 E.01579
G1 X104.381 Y108.369 E.01579
G1 X104.188 Y108.101 E.01579
G1 X104.07 Y107.793 E.01579
G1 X104.036 Y107.464 E.01579
G1 X104.088 Y107.139 E.01579
G1 X104.223 Y106.837 E.01579
G1 X104.431 Y106.581 E.01579
G1 X104.699 Y106.388 E.01579
G1 X105.007 Y106.27 E.01579
G1 X105.291 Y106.24 E.01365
G1 X105.701 Y106.305 E.01985
G1 X106.034 Y106.478 E.01798
G1 X106.219 Y106.631 E.01148
G1 X106.412 Y106.899 E.01579
;WIDTH:0.669018
G1 X106.491 Y107.05 E.0087
;WIDTH:0.708037
G1 X106.569 Y107.202 E.00925
;WIDTH:0.738474
G1 X106.59 Y107.316 E.00654
G1 X107.421 Y107.498 F9000
;WIDTH:0.774265
G1 F900
G1 X107.447 Y107.363 E.00819
;WIDTH:0.737799
G1 X107.481 Y107.191 E.00992
;WIDTH:0.701332
G1 X107.514 Y107.019 E.0094
;WIDTH:0.664865
G1 X107.679 Y106.534 E.02597
;WIDTH:0.629999
G1 X107.921 Y106.086 E.02434
G1 X108.248 Y105.697 E.02434
G1 X108.647 Y105.381 E.02434
G1 X109.101 Y105.152 E.02434
G1 X109.646 Y105.01 E.02696
G1 X110.096 Y104.992 E.02153
G1 X110.597 Y105.058 E.02419
G1 X111.083 Y105.23 E.02463
G1 X111.517 Y105.495 E.02434
G1 X111.89 Y105.841 E.02434
G1 X112.185 Y106.256 E.02434
G1 X112.391 Y106.721 E.02434
;WIDTH:0.669978
G1 X112.446 Y106.883 E.00874
;WIDTH:0.709957
G1 X112.502 Y107.044 E.00929
;WIDTH:0.749935
G1 X112.557 Y107.206 E.00985
;WIDTH:0.791482
G1 X112.585 Y107.727 E.03181
G1 X112.542 Y107.849 E.00788
;WIDTH:0.752459
G1 X112.499 Y107.97 E.00747
;WIDTH:0.713436
G1 X112.456 Y108.092 E.00706
;WIDTH:0.674413
G1 X112.413 Y108.214 E.00665
;WIDTH:0.635389
G1 X112.212 Y108.696 E.02522
;WIDTH:0.629999
G1 X111.926 Y109.117 E.02434
G1 X111.561 Y109.471 E.02434
G1 X111.132 Y109.745 E.02434
G1 X110.657 Y109.927 E.02434
G1 X110.155 Y110.01 E.02434
G1 X109.646 Y109.99 E.02434
G1 X109.153 Y109.867 E.02434
M73 P2 R63
G1 X108.693 Y109.648 E.02434
G1 X108.288 Y109.341 E.02434
G1 X107.952 Y108.959 E.02434
G1 X107.7 Y108.517 E.02434
G1 X107.543 Y108.033 E.02434
;WIDTH:0.678088
G1 X107.5 Y107.867 E.00888
;WIDTH:0.726177
G1 X107.457 Y107.701 E.00955
;WIDTH:0.774265
G1 X107.419 Y107.556 E.00889
G1 E-2.8 F3600
;WIPE_START
G1 F900
G1 X107.447 Y107.363 E-.23461
G1 X107.481 Y107.191 E-.21017
G1 X107.514 Y107.019 E-.21017
G1 X107.66 Y106.589 E-.54504
;WIPE_END
G1 Z.6 F9000
G1 X113.383 Y107.701 Z.6
G1 Z.2
G1 E4 F2400
;WIDTH:0.791482
G1 F900
G1 X113.373 Y107.675 E.00167
;WIDTH:0.782935
G1 X113.412 Y107.189 E.02942
;WIDTH:0.749935
G1 X113.535 Y107.003 E.01284
;WIDTH:0.709957
G1 X113.658 Y106.817 E.01212
;WIDTH:0.669978
G1 X113.781 Y106.631 E.01139
;WIDTH:0.629999
G1 X114.099 Y106.388 E.01915
G1 X114.407 Y106.27 E.01579
G1 X114.691 Y106.24 E.01365
G1 X115.061 Y106.288 E.01784
G1 X115.363 Y106.423 E.01582
G1 X115.619 Y106.631 E.01579
G1 X115.812 Y106.899 E.01579
G1 X115.93 Y107.207 E.01579
G1 X115.964 Y107.536 E.01579
G1 X115.912 Y107.861 E.01579
G1 X115.777 Y108.163 E.01579
G1 X115.569 Y108.419 E.01579
G1 X115.301 Y108.612 E.01579
G1 X114.993 Y108.73 E.01579
G1 X114.664 Y108.764 E.01579
G1 X114.325 Y108.706 E.01646
G1 X114.037 Y108.577 E.01511
G1 X113.781 Y108.369 E.01579
;WIDTH:0.669778
G1 X113.616 Y108.123 E.01512
;WIDTH:0.709557
G1 X113.452 Y107.877 E.01608
;WIDTH:0.75052
G1 X113.412 Y107.776 E.00623
;WIDTH:0.791482
G1 X113.405 Y107.757 E.00126
G1 E-2.8 F3600
;WIPE_START
G1 F900
G1 X113.373 Y107.675 E-.10492
G1 X113.412 Y107.189 E-.58549
G1 X113.535 Y107.003 E-.26748
G1 X113.646 Y106.835 E-.24211
;WIPE_END
G1 Z.6 F9000
G1 X135.788 Y93.723 Z.6
G1 Z.2
G1 E4 F2400
;TYPE:Bottom surface
;WIDTH:0.632679
G1 F2100
G1 X137.636 Y95.572 E.12563
G1 X137.636 Y96.406 E.04008
G1 X135.194 Y93.964 E.16597
G1 X134.36 Y93.964 E.04008
G1 X137.636 Y97.24 E.22266
G1 X137.636 Y98.074 E.04008
G1 X133.526 Y93.964 E.27934
G1 X132.692 Y93.964 E.04008
G1 X137.636 Y98.908 E.33603
G1 X137.636 Y99.742 E.04008
G1 X131.858 Y93.964 E.39271
G1 X131.024 Y93.964 E.04008
G1 X137.636 Y100.576 E.4494
G1 X137.636 Y101.41 E.04008
G1 X130.19 Y93.964 E.50608
G1 X129.356 Y93.964 E.04008
G1 X137.636 Y102.244 E.56277
G1 X137.636 Y103.078 E.04008
G1 X128.522 Y93.964 E.61945
G1 X127.688 Y93.964 E.04008
G1 X137.26 Y103.536 E.65057
G1 X136.597 Y103.536 E.03185
G1 X136.446 Y103.556 E.00734
G1 X126.854 Y93.964 E.65194
G1 X126.02 Y93.964 E.04008
G1 X135.846 Y103.79 E.66781
G1 X135.731 Y103.867 E.00663
G1 X135.542 Y104.074 E.01351
G1 X135.455 Y104.234 E.0087
G1 X125.186 Y93.964 E.69797
G1 X124.352 Y93.964 E.04008
G1 X135.286 Y104.898 E.74316
G1 X135.286 Y105.733 E.04008
G1 X123.517 Y93.964 E.79985
G1 X122.683 Y93.964 E.04008
G1 X135.286 Y106.567 E.85653
G1 X135.286 Y107.401 E.04008
G1 X121.849 Y93.964 E.91322
G1 X121.015 Y93.964 E.04008
G1 X135.286 Y108.235 E.9699
G1 X135.286 Y109.069 E.04008
G1 X120.181 Y93.964 E1.02659
G1 X119.347 Y93.964 E.04008
G1 X135.286 Y109.903 E1.08327
G1 X135.286 Y110.152 E.01199
G1 X135.326 Y110.469 E.01537
G1 X135.401 Y110.682 E.01085
G1 X135.48 Y110.833 E.00815
G1 X135.661 Y111.066 E.0142
G1 X135.945 Y111.287 E.01729
G1 X136.211 Y111.404 E.01399
G1 X136.596 Y111.464 E.0187
G1 X136.847 Y111.464 E.01208
G1 X137.636 Y112.253 E.05362
G1 X137.636 Y113.087 E.04008
G1 X118.513 Y93.964 E1.29967
G1 X117.679 Y93.964 E.04008
G1 X137.636 Y113.921 E1.35636
G1 X137.636 Y114.755 E.04008
G1 X116.845 Y93.964 E1.41304
G1 X116.011 Y93.964 E.04008
G1 X137.636 Y115.589 E1.46973
G1 X137.636 Y116.423 E.04008
G1 X115.177 Y93.964 E1.52641
G1 X114.343 Y93.964 E.04008
G1 X137.636 Y117.257 E1.5831
G1 X137.636 Y118.091 E.04008
G1 X113.509 Y93.964 E1.63978
G1 X112.675 Y93.964 E.04008
G1 X137.636 Y118.925 E1.69647
G1 X137.636 Y119.759 E.04008
G1 X111.841 Y93.964 E1.75315
G1 X111.007 Y93.964 E.04008
G1 X137.636 Y120.593 E1.80984
G1 X137.636 Y121.427 E.04008
G1 X110.173 Y93.964 E1.86652
G1 X109.339 Y93.964 E.04008
G1 X137.636 Y122.261 E1.92321
G1 X137.636 Y123.095 E.04008
G1 X108.505 Y93.964 E1.97989
G1 X107.671 Y93.964 E.04008
G1 X137.636 Y123.929 E2.03658
G1 X137.636 Y124.763 E.04008
G1 X106.837 Y93.964 E2.09327
G1 X106.003 Y93.964 E.04008
G1 X137.636 Y125.597 E2.14995
G1 X137.636 Y126.036 E.02108
G1 X137.241 Y126.036 E.019
G1 X105.168 Y93.964 E2.17977
G1 X104.334 Y93.964 E.04008
G1 X136.407 Y126.036 E2.17977
G1 X135.573 Y126.036 E.04008
G1 X117.013 Y107.477 E1.26137
G1 X116.962 Y107.986 E.0246
G1 X116.903 Y108.2 E.01067
G1 X134.739 Y126.036 E1.2122
G1 X133.905 Y126.036 E.04008
G1 X116.635 Y108.767 E1.17372
G1 X116.398 Y109.072 E.01857
G1 X116.249 Y109.215 E.00993
G1 X133.071 Y126.036 E1.14326
G1 X132.237 Y126.036 E.04008
G1 X115.755 Y109.555 E1.12015
G1 X115.357 Y109.72 E.02069
G1 X115.134 Y109.768 E.01097
G1 X131.402 Y126.036 E1.10565
G1 X130.568 Y126.036 E.04008
M73 P2 R62
G1 X114.302 Y109.77 E1.10554
G1 X114.125 Y109.743 E.00862
G1 X113.691 Y109.579 E.0223
G1 X113.406 Y109.415 E.01577
G1 X113.131 Y109.192 E.01701
G1 X113.042 Y109.344 E.00846
G1 X129.734 Y126.036 E1.13448
G1 X128.9 Y126.036 E.04008
G1 X112.695 Y109.831 E1.10135
G1 X112.272 Y110.242 E.02835
M73 P3 R62
G1 X128.066 Y126.036 E1.07346
G1 X127.232 Y126.036 E.04008
G1 X111.774 Y110.578 E1.05062
G1 X111.589 Y110.691 E.01043
G1 X111.203 Y110.841 E.0199
G1 X126.398 Y126.036 E1.03275
G1 X125.564 Y126.036 E.04008
G1 X110.535 Y111.007 E1.02144
G1 X110.119 Y111.062 E.02017
G1 X109.734 Y111.04 E.01854
G1 X124.73 Y126.036 E1.0192
G1 X123.896 Y126.036 E.04008
G1 X108.657 Y110.798 E1.03568
G1 X108.122 Y110.53 E.02878
G1 X107.641 Y110.167 E.02895
G1 X107.469 Y110.007 E.0113
G1 X107.045 Y109.493 E.03203
G1 X106.873 Y109.191 E.01671
G1 X106.594 Y109.415 E.01721
G1 X106.497 Y109.471 E.00538
G1 X123.062 Y126.036 E1.12585
G1 X122.228 Y126.036 E.04008
G1 X105.697 Y109.505 E1.12354
G1 E-2.8 F3600
;WIPE_START
G1 F2100
G1 X106.404 Y110.212 E-1.2
;WIPE_END
G1 Z.6 F9000
G1 X115.02 Y105.484 Z.6
G1 Z.2
G1 E4 F2400
G1 F2100
G1 X103.5 Y93.964 E.78295
G1 X102.666 Y93.964 E.04008
G1 X114.006 Y105.304 E.7707
G1 X113.578 Y105.474 E.02214
G1 X113.441 Y105.572 E.00812
G1 X101.832 Y93.964 E.78895
G1 X100.998 Y93.964 E.04008
G1 X111.187 Y104.153 E.69247
G1 X111.014 Y104.086 E.00892
G1 X110.742 Y104.019 E.01344
G1 X110.149 Y103.948 E.02873
G1 X100.164 Y93.964 E.67858
G1 X99.33 Y93.964 E.04008
G1 X109.366 Y103.999 E.68205
G1 X108.883 Y104.119 E.02389
G1 X108.714 Y104.182 E.00868
G1 X98.496 Y93.964 E.69444
G1 X97.662 Y93.964 E.04008
G1 X108.153 Y104.455 E.713
G1 X107.673 Y104.809 E.02866
G1 X96.828 Y93.964 E.73706
G1 X95.994 Y93.964 E.04008
G1 X107.268 Y105.237 E.7662
G1 X107.045 Y105.507 E.01682
G1 X106.921 Y105.725 E.01203
G1 X95.16 Y93.964 E.79932
G1 X94.326 Y93.964 E.04008
G1 X105.578 Y105.216 E.76472
G1 X105.262 Y105.189 E.01521
G1 X104.777 Y105.249 E.02352
G1 X93.492 Y93.964 E.76697
G1 X92.658 Y93.964 E.04008
G1 X104.179 Y105.485 E.78305
G1 X104.004 Y105.587 E.00974
G1 X103.7 Y105.84 E.01902
G1 X91.824 Y93.964 E.80714
G1 X90.99 Y93.964 E.04008
G1 X103.322 Y106.296 E.83818
G1 X103.117 Y106.742 E.02356
G1 X103.075 Y106.883 E.0071
G1 X90.156 Y93.964 E.87806
G1 X89.322 Y93.964 E.04008
G1 X103.001 Y107.643 E.92967
G1 X103.044 Y108.015 E.01801
G1 X103.089 Y108.183 E.00834
G1 X103.222 Y108.511 E.01703
G1 X103.385 Y108.794 E.01571
G1 X103.602 Y109.072 E.01693
